X: 12993
T: Fifth Flight, The
R: reel
M: 4/4
K: Fdorian
G2 F2|:E4 GA Bd|e4 B2 E2|1 c4 e2 E2|B6 cd|e4 d4|B4 E4|
A2 B2 G2 E2|F4 G2 F2:|2 c4 e2 f2|g6 f2|e2 E2 c e3|B2 A2 G2 c2|
B4 F2 D2|E6 D2|:c2 G2 c2 e2|f2 d2 B2 d2|c2 G2 c2 e2|1 g6 d2|c2 G2 c2 e2|
f2 d2 B2 d2|c3 B G B3|c6 d2:|2 g6 f2|e2 E2 c e3|B2 A2 G2 c2|B4 F2 D2|E8||

